icons/a4-landscape-24.svg

<?xml version="1.0" encoding="UTF-8"?><svg id="icons" xmlns="http://www.w3.org/2000/svg" viewBox="0 0 24 24"><defs><style>.cls-1{fill:none;}.cls-1,.cls-2,.cls-3{stroke-width:0px;}.cls-2{opacity:.25;}</style></defs><rect class="cls-1" width="24" height="24"/><path class="cls-2" d="M17,6H2v-3h15v3Z"/><path class="cls-3" d="M18.29102,2H1v14h1V3h15v6h6v10h-2v1h3V7.71002l-5.70898-5.71002ZM23,8h-5V3h.20001l4.79999,4.79999v.20001ZM6,12h-1L.95001,21h.99078l1.37775-3h4.36292l1.37775,3h.99078l-4.04999-9ZM3.77783,17l1.72217-3.75,1.72217,3.75h-3.44434ZM17,12h-1.10809l-4.84601,7h4.9541v2h1v-2h2v-1h-2v-6ZM16,18h-3.0459l3.0459-4.39941v4.39941Z"/></svg>

<svg xmlns="http://www.w3.org/2000/svg" viewBox="0 0 24 24"><path stroke-width="0" fill="none" d="M0 0h24v24H0z"/><path d="M17 6H2V3h15v3z" opacity=".25" stroke-width="0"/><path d="M18.291 2H1v14h1V3h15v6h6v10h-2v1h3V7.71L18.291 2zM23 8h-5V3h.2L23 7.8V8zM6 12H5L.95 21h.99l1.379-3H7.68l1.378 3h.991L6 12zm-2.222 5L5.5 13.25 7.222 17H3.778zM17 12h-1.108l-4.846 7H16v2h1v-2h2v-1h-2v-6zm-1 6h-3.046L16 13.6V18z" stroke-width="0"/></svg>
